src/images_karasa_jaga_svg/cmd/32/shadowcursor.svg

<svg height="32" viewBox="0 0 8.4666665 8.466667" width="32" xmlns="http://www.w3.org/2000/svg"><g transform="matrix(.25 0 0 .25 0 -65.78333)"><path d="m15.345833 270.80624v1.05833h3.175v-1.05833zm3.175 1.05833v22.48958h2.645834v-22.48958zm2.645834 0h3.175v-1.05833h-3.175zm0 22.48958v1.05834h3.175v-1.05834zm-2.645834 0h-3.175v1.05834h3.175z" fill="#cccccd"/><path d="m48 19v4h12v-4zm12 4v85h10v-85zm10 0h12v-4h-12zm0 85v4h12v-4zm-10 0h-12v4h12z" fill="#1c2d40" transform="matrix(.26458333 0 0 .26458333 0 263.13332)"/></g></svg>

<?xml version="1.0" encoding="UTF-8" standalone="no"?>
<!-- Created with Inkscape (http://www.inkscape.org/) -->

<svg
   xmlns:dc="http://purl.org/dc/elements/1.1/"
   xmlns:cc="http://creativecommons.org/ns#"
   xmlns:rdf="http://www.w3.org/1999/02/22-rdf-syntax-ns#"
   xmlns:svg="http://www.w3.org/2000/svg"
   xmlns="http://www.w3.org/2000/svg"
   xmlns:xlink="http://www.w3.org/1999/xlink"
   xmlns:sodipodi="http://sodipodi.sourceforge.net/DTD/sodipodi-0.dtd"
   xmlns:inkscape="http://www.inkscape.org/namespaces/inkscape"
   width="128"
   height="128"
   viewBox="0 0 33.866666 33.866668"
   version="1.1"
   id="svg872"
   inkscape:version="0.92.2 (unknown)"
   sodipodi:docname="shadowcursor.svg"
   inkscape:export-filename="/home/rizmut/Dokumen/Rizmut/Github/libreoffice-style-karasa-jaga/build/images_karasa_Jaga/cmd/32/shadowcursor.png"
   inkscape:export-xdpi="24"
   inkscape:export-ydpi="24">
  <defs
     id="defs866" />
  <sodipodi:namedview
     id="base"
     pagecolor="#ffffff"
     bordercolor="#666666"
     borderopacity="1.0"
     inkscape:pageopacity="0.0"
     inkscape:pageshadow="2"
     inkscape:zoom="1.9453125"
     inkscape:cx="44.220021"
     inkscape:cy="8.1182979"
     inkscape:document-units="mm"
     inkscape:current-layer="layer1"
     showgrid="true"
     units="px"
     inkscape:snap-page="true"
     inkscape:window-width="1366"
     inkscape:window-height="706"
     inkscape:window-x="0"
     inkscape:window-y="35"
     inkscape:window-maximized="1">
    <inkscape:grid
       type="xygrid"
       id="grid885" />
  </sodipodi:namedview>
  <metadata
     id="metadata869">
    <rdf:RDF>
      <cc:Work
         rdf:about="">
        <dc:format>image/svg+xml</dc:format>
        <dc:type
           rdf:resource="http://purl.org/dc/dcmitype/StillImage" />
        <dc:title></dc:title>
      </cc:Work>
    </rdf:RDF>
  </metadata>
  <g
     inkscape:label="Layer 1"
     inkscape:groupmode="layer"
     id="layer1"
     transform="translate(0,-263.13332)">
    <path
       id="path898"
       d="m 15.345833,270.80624 v 1.05833 h 3.175 v -1.05833 z m 3.175,1.05833 v 22.48958 h 2.645834 v -22.48958 z m 2.645834,0 h 3.175 v -1.05833 h -3.175 z m 0,22.48958 v 1.05834 h 3.175 v -1.05834 z m -2.645834,0 h -3.175 v 1.05834 h 3.175 z"
       style="opacity:1;fill:#cccccd;fill-opacity:1;stroke:none;stroke-width:1.28534579;stroke-linecap:square;stroke-linejoin:bevel;stroke-miterlimit:4;stroke-dasharray:none;stroke-dashoffset:0;stroke-opacity:0.73039216"
       inkscape:connector-curvature="0" />
    <image
       y="263.13333"
       x="33.866665"
       id="image882"
       xlink:href="data:image/png;base64,iVBORw0KGgoAAAANSUhEUgAAABgAAAAYCAYAAADgdz34AAAA00lEQVRIx2NgGAXUADK6dldBWFBG
PRaEZfUcXsjqO74CSjFBMSPFlgjKqMXLGTj/B2EBKZUUoBAPEPMDMS8Qs1JqCUgzB8wCIFsZiFWg
tCQQc1LDF6xIFpgCsRnUEkFq+ADsCyQLLKFYCojZqBIHIIBkgTkUiwMxM9VSExYLxEYtGLVg1IKh
ZIGQrEYMzAIeEZkGoJAF1YoKYAXzFFTBCEqrJfBLKObK6Nl/kNGxA1U40tQs7FihRbMKtKimanHN
CK1UJJEqG1WqVzhI1SQPGhunDwBkTk1oJiWaQQAAAABJRU5ErkJggg==
"
       preserveAspectRatio="none"
       height="33.866669"
       width="33.866669" />
    <path
       style="opacity:1;fill:#1c2d40;fill-opacity:1;stroke:none;stroke-width:4.8579998;stroke-linecap:square;stroke-linejoin:bevel;stroke-miterlimit:4;stroke-dasharray:none;stroke-dashoffset:0;stroke-opacity:0.73039216"
       d="M 48 19 L 48 23 L 60 23 L 60 19 L 48 19 z M 60 23 L 60 108 L 70 108 L 70 23 L 60 23 z M 70 23 L 82 23 L 82 19 L 70 19 L 70 23 z M 70 108 L 70 112 L 82 112 L 82 108 L 70 108 z M 60 108 L 48 108 L 48 112 L 60 112 L 60 108 z "
       transform="matrix(0.26458333,0,0,0.26458333,0,263.13332)"
       id="rect887" />
  </g>
</svg>
